X: 35102
T: Rolling Waves, The
R: jig
M: 6/8
K: Gmajor
|:BAB G3|G2g fdc|BF/G/B G3|d2B cBA|
BF/G/B G3|G2g fdc|BF/G/B cBc|d2B cBA:|
|:G2g fdg|fdg fdc|B2g fdc|BF/G/B cBA|
G2g fdg|bag fdc|BF/G/B cBc|d2B cBA|
G2g fdg|fdc ABc|B2g fdc|dB/c/d cBA|
G2g fdg|bag fdc|BF/G/B cBc|dB/c/d cBA||

